X: 1722
T: Aodhan's
R: slip jig
M: 9/8
K: Amixolydian
|:"A" A2A cAd e3|"D" A2A cAe dBG|"Bm11" A2A cAd e2f|"C" gag eg"G"e dBG:|
"A5" ABA ABA a2A|"A5" ABA ABa "G5" gab|"A5" ABA ABA agf|"C" gag eg"G"e dBG|
"A5" ABA ABA a2A|"A5" ABA ABa "G5" gab|"C" =c'ab gae ge=c|"G" B2B d=cB "E" dcB||

